X:1
T:Title
%%score { 1 | ( 2 3 ) }
L:1/8
M:3/4
K:F
V:1 treble nm="Grand Piano"
V:2 bass 
V:3 bass 
V:1
 z2 z2[Q:1/4=110] c2 | A4 A2 | [B,EG]2 F2 [B,EG]2 | F6- | F4 AB | c4 A2 | [Fd]4 [DGB]2 | [EG]6- | %8
[M:2/4] [EG]4 |[M:1/4] [EG]2 |[M:3/4] A4 A2 | B2 A2 B2 | c4 ^c2 | d4 [DGB]G | F4 F2 | E2 A2 [EG]2 | %16
 F6- |[M:2/4] F4 |] %18
V:2
 z2 z2 [F,A,F]2 | [F,CF]4 [F,CF]2 | z2 A,2 C,2 | z6 | z2 z2 .C2 | [F,A,F]4 [F,CF]2 | %6
 [B,,B,]4 B,,2 | [C,C]6- |[M:2/4] [C,C]4 |[M:1/4] [C,C]2 |[M:3/4][K:treble] [F,CF]4 [F,CF]2 | %11
 [G,CE]4 [G,B,E]2 | [A,F]4 [A,EG]2 | [B,DF]4[K:bass] z [B,D] | [C,A,C]4 [C,A,C]2 | %15
 [G,C]2 [CE]2 [C,B,]2 | [F,A,]6- |[M:2/4] [F,A,]4 |] %18
V:3
 x6 | x6 | C,4 z2 | [F,A,]6- | [F,A,]4 [F,F]-[F,B,F] | x6 | x6 | x6 |[M:2/4] x4 |[M:1/4] x2 | %10
[M:3/4][K:treble] x6 | x6 | x6 | z2 z2[K:bass] B,,2 | x6 | C,4 z2 | x6 |[M:2/4] x4 |] %18

